!!!SOCIAL_FUNCTION:	songs for success in hunting
!!!PDT:	1956
!!!OTL: A Man Drives in the Game Duplication of No.214
!!!LANG: Non-Tone
!!!LING_GROUP: Muskogean
!!!REG: Florida
**kern
*staff1
=1-
*clefF4
*k[b-]
*M2/4
4c\
8c\
8r
=2
(8A\L
8G\J)
4F\
=3
4G\
4r
=4
4G\
8D\
8r
=5
8F\L
8F\J
4D\
=6
4D\
4r
=7
(8F\L
8D\J
8F\)
8r
=8
8F\L
8F\J
4F\
=9
4G\
4r
=10
4G\
8D\
8r
=11
8F\L
8G\J
4D\
=12
4D\
4r
=13
4c\
4c\
=14
8d\L
[8c\J
4c\]
=15
8A\L
8G\J
4F\
=16
4G\
4r
=17
4G\
4F\
=18
8F\L
8F\J
4F\
=19
4G\
4r
=20
4G\
4D\
=21
8F\L
8F\J
4D\
=22
2D\
=23
4c\
8c\
8r
=24
8A\L
8G\J
4F\
=25
4G\
4r
=26
4G\
8D\
8r
=27
8F\L
8F\J
4D\
=28
4D\
4r
=29
8F\L
8D\J
8F\
8r
=30
8F\L
8F\J
4F\
=31
4G\
4r
=32
4G\
8D\
8r
=33
8F\L
8F\J
4D\
=34
4D\
4r
=35
4c\
4c\
=36
4c\
4c\
=37
8A\L
8G\J
4F\
=38
4G\
4r
=39
4G\
4F\
=40
8F\L
8F\J
4F\
=41
4G\
4r
=42
4G\
4D\
=43
8F\L
8F\J
4D\
=44
4D\
8A\L
8F\J
=45
2A\
=46
16AA/LL
16AA/J
8AA/J
8BB-/L
8AA/J
==
*-
